X: 1
T: Haste to the Wedding  v.2
P: piffero secondo a0825
C: Dan Moylan
F: http://ancients.sudburymuster.org/mus/med/pdf/shotgunC1.pdf
Z: 2019 John Chambers <jc:trillian.mit.edu>
M: 6/8
L: 1/8
K: D
c |\
cAc dfd | cBc dfd | cAc ABc | Bcd GAB |\
cAc dfd | cBc dfd | cAc ABc | F3  F2 :|
|: f |\
fdf dBA | geg cAG | fdf dBA | edc cde |\
f3  d3  | cBA FBd | cAc dfd | cBA F2 :|
